X: 364
T: A Special Day
R: waltz
M: 3/4
K: Amajor
AB|c3e cA|B2A2AB|c3B AG|F3E AB|
c3e cA|B2A2AG|F3G Ac|1 B3E:|2 B6||
|:AEAcec|d2c2B2|cAceae|f2e2d2|
c3d ec|B3c dB|A4G2|1 F4G2:|2 F3E||

